X:1
T:The Well-Tempered Clavier Part II Fuga VIII
T:BWV 877
T:J. S. Bach
%%score { ( 1 4 5 ) | ( 2 3 ) }
L:1/8
M:4/4
K:F#
V:1 treble nm="Harp"
V:4 treble 
V:5 treble 
V:2 bass 
V:3 bass 
V:1
 z DDD ^^CD E2- | ED G3 F/E/ AG | FE DC/D/ E3 D/E/ | F3 E/^^F/ G3 F/^^G/ | A^B c3 ^^FGA | %5
 D G2 ^^F B3 A/G/ | FGAB E/F/E/D/ ^^C/D/E/F/ | G/A/G/F/ E2- EF/G/ FE | z AAA ^^EA ^B2- | %9
 BA d3 c/^B/ ed | c2- cd/=e/ A d2 c- | cB A2- AG g2- | g f2 e/d/ ^^cefc | d/c/B/A/ GA BA G2- | %14
 GFE=E D3 C/D/ | =E3 D/^E/ F3 E/^^F/ | G z z2 z4 | z8 | z8 | z8 | z ddd ^^cd e2- | ed g3 f/e/ ag | %22
 fa d2- d3 ^^c | d z z2 z4 | z8 | z8 | z4 z ccc | ^Bc d2- dc f2- | f=e/d/ gf ^ec f2- | %29
 f2 e2 f3 =e | d3 c/B/ A2 a2- | ag/^^f/ g4- gf | g3 f ^e4- | ed/c/ BA ^^G2 A2- | A2 ^^G2 A3 ^G | %35
 ^^FcB A2 G c2- | cB/A/ B=e ^^cA g2- | gf/e/ fb ^^ge a/^g/^^f/d/ | %38
 d2- d/f/e/d/ ^^c/e/d/^c/ ^B/d/c/=B/ | A2- AG- G/D/F/A/ d/A/f | e z z b a z z g | %41
 ^^c z z e Ad/c/ dG | F2 E2 Dddd | ^^cd e2- ed g2- | gf/e/ ag f^^c d2- | d2 ^^c2 d4 |] %46
V:2
 z8 | z8 | z A,A,A, ^^G,A, ^B,2- | B,A,[I:staff -1] D3 C/^B,/ ED | C^B,A,A D3 C | %5
[I:staff +1] B,2 A,2 G,[I:staff -1]G ^^C2 | D[I:staff +1]E,F,G, A,3 G,/A,/ | %7
 B,3 A,/^B,/ C3[I:staff -1] B,/^^C/ | D[I:staff +1]G, F,/G,/A,/^B,/ CB,/A,/ ^^G,2- | %9
 G,A,/^^G,/ A, z z D^B,E | E2 z2 z C=B,C | ^^F, =E2 D/^^C/ D3[I:staff -1] B | %12
 A[I:staff +1]D[I:staff -1] G2- G[I:staff +1]^^CDE | A, D2[I:staff -1] ^^C F3 E/D/ | %14
 ^^C D2 ^C- C/B,/A,/G,/ ^^F,/G,/A,/B,/ | C/D/C/B,/ A,/G,/[I:staff +1]F,/E,/ D,2 z A, | %16
 D/=E/D/C/ B,/C/D- D/C/B,/A,/ G,/A,/B,/G,/ | A,[I:staff -1]D[I:staff +1]G,[I:staff -1]G C4- | %18
 CCCC A,B, C2- | CB, =E2- ED/C/ FE | D[I:staff +1]^^F,G,^^G, A,3 ^G,/A,/ | B,3 A,/^B,/ C3 B,/^^C/ | %22
 D2- D/=E/D/C/ B,2- B,A,/G,/ | A,[I:staff -1]=EEE D^E^^FG | AG ^^F2 G ^F2 E/D/ | %25
 ^^C D2 C/^B,/ C2[I:staff +1] ^C2- | CB,/A,/ B,=E CA,DE | D C2 =C ^C2- CD | %28
 ^B,C =D2 C^D/E/[I:staff -1] F/G/=A- | AG/F/ G2 F[I:staff +1] z z2 | z8 | z DDD CD =E2- | %32
 ED[I:staff -1] G2- GF/^E/ AG | F>E DC ^B,2 C2 |[I:staff +1] ^B,D/A,/ B,2 A,B, C2- | %35
 C^^F,G,A, D, G,2 F, | B,3 A,/G,/ A, D2 ^^C |[K:treble] F3 E/D/ E A2 G | ^^FD G2- G^F- F/F/E/D/ | %39
[K:bass] ^^C/E/D/^C/ ^B,=B, A,2 z ^B, | E z z E A, z z D | E z z ^^C DA,/G,/ A,B, | %42
 A,2 G,2 F,A,A,A, | B,A, G,2- G,A, E,2- | E,F,/G,/ D,E, F,B, A,D,/=F,/ | %45
 F,=F,/D,/ A,[I:staff -1]E D4 |] %46
V:3
 x8 | x8 | x8 | x8 | x8 | x8 | z D,D,D, ^^C,E, E,2- | E,D, G,3 F,/E,/ A,G, | %8
 F,E, D,C,/D,/ E,3 D,/E,/ | F,3 E,/^^F,/ ^G,3 F,/^^G,/ | A,^B, C2- C^^F,G,A, | %11
 D, G,2 ^^F, B,3 A,/G,/ | DC B,2 A,3 G, | F,2 E,2 D,C,B,,B, | A,A,,A,,A,, ^^F,,G,, A,,2- | %15
 A,,G,, C,2- C,B,,/A,,/ D,C, | B,,>A,, G,,/A,,/B,,/G,,/ C,D,^^E,C, | %17
 F,3 E,/D,/ E,/G,/C,/D,/ E,/F,/G,/E,/ | F,E,/D,/ C,/D,/=E,/C,/ D,2- D,/D,,/E,,/^^F,,/ | %19
 G,,2- G,,^^F,,/G,,/ A,,2- A,,G,,/A,,/ | B,,4 A,,^B,, ^^C,B,,/C,/ | D,^^C,/D,/ E,2- E,D,/E,/ F,2- | %22
 F,E,/^^F,/ G,2- G,^F, =E,2 | D,2 C,2 B,,3 A,,/G,,/ | ^^F,,D,D,D, ^^C,D, E,2 | %25
 E,D, G,3 F,/E,/ A,G, | ^^F,D, G,2- G,^^F,/^E,/ F,^F,- | F,=E,F,G, A,3 G,/F,/ | %28
 G,A, =B,2- B,A,/G,/ A,^B, | C2 C,2 F,/E,/F,/G,/ A,/F,/G,/A,/ | %30
 B,/C/D/B,/ C/B,/A,/G,/ F,/G,/F,/=E,/ D,/C,/B,,/A,,/ | B,,B,/A,/ B,C/B,/ A,2 =A,2 | %32
 G,2- G,/F,/=E,/D,/ ^^C,3 ^B,,/A,,/ | D,D,,D,E, F,E,/D,/ C,/^B,,/A,,/C,/ | E,,4 A,, z z2 | x8 | %36
 x8 |[K:treble] x8 | x8 |[K:bass] z4 z D,D,D, | ^^C,D, E,2- E,D, G,2- | %41
 G,F,/E,/ A,G, F,D,/E,/ F,G, | A,2 A,,2 D,4- | D,D,/^^C,/ D,/F,/E,/D,/ C,F, z/ B,,/A,,/G,,/ | %44
 A,,>G,, F,,A,, D,E,F,^^G,, | A,,4 D,,4 |] %46
V:4
 x8 | x8 | x8 | x8 | x8 | x8 | x8 | x8 | D^^C D/E/F ^E3 F/E/ | DC z c ^BA G/A/B- | %10
 BA/^^G/ A^G ^^FA D/^E/F/G/ | AG z2 z4 | x8 | x8 | x8 | x8 | z GGG =EF G2- | GF B3 A/G/ cB | %18
 AG/E/ EG- GF/G/ A2- | AG/^^F/ GA/B/ c4- | cB/A/ B/G/F/^E/ F>F E/F/G- | GF z f e z z e | %22
 d^c- cB/A/ G/D/G GG | ^^FG A2- AG c2- | cB/A/ dc BA G2- | GF E2- EA/G/ FE | Dd d/B/A/G/ A3 =A | %27
 G2 =AG/F/ =EF/G/ A2 | G3 =A/B/ c3 d | cBBB AB c2- | cB e3 d/c/ fe | d2 z G AB c2- | %32
 cB/A/ B2- BA/G/ A2 | A>G FE D/E/F EF/^^D/ | E3 D CDE=E | D3 C[I:staff +1] B,2 A,[I:staff -1]A | %36
 DG/^^F/ G2- G[I:staff +1]^F^E[I:staff -1]^e | Ad/^^c/ d2- d^c/^B/ c2- | c/c/B/A/ B2 A2 G2- | %39
 G/G/F/E/ D/F/E/D/ ^^C[I:staff +1]D[I:staff -1] z ^^G | A z z ^^c f z z B | A z z F FF/E/ DE- | %42
 E D2 ^^C DF/E/ F/A/G/F/ | E/G/F/A/ B/A/B- BA z/ d/^^c/^B/ | ^^cd/e/ fc dG F/E/F- | %45
 FG/F/ E/F/G ^^F4 |] %46
V:5
 x8 | x8 | x8 | x8 | x8 | x8 | x8 | x8 | x8 | x8 | x8 | x8 | x8 | x8 | x8 | x8 | x8 | x8 | x8 | %19
 x8 | x8 | x8 | x8 | x8 | x8 | x8 | x8 | x8 | x8 | x8 | x8 | x8 | x8 | x8 | x8 | x8 | x8 | x8 | %38
 x8 | x8 | x8 | x8 | x8 | x8 | x8 | A4 A4 |] %46

